X:54
T:Rolling in the Rye Grass
R:reel
Z:Julie Ross
D:Concertina Music from West Clare: Elizabeth Crotty
M:C|
K:D
A2AF DFAF|G2BG dGBG|(3ABA AF DFAF|GBAG E2DB|
A3F DFAF|G2BG dGBG|AFAF DFAA|GBAG EFDB||
ABde ~f2ed|~g2eg fedB|ABde fefg|afdf efdB|
ABde ~f2ef|~g2eg fdBd|ABde fefg|abaf (3efe dB||
